dist/svg/u2695.svg

<?xml version="1.0" encoding="UTF-8"?><svg id="a" xmlns="http://www.w3.org/2000/svg" viewBox="0 0 40 40"><g><rect x="3.5" y="3.5" width="33" height="33" rx="8" ry="8" fill="#786de7"/><rect width="40" height="40" fill="none"/></g><g><path d="M19.857,10.066h1.594V31.613c0,.44-.357,.797-.797,.797h0c-.44,0-.797-.357-.797-.797V10.066h0Z" fill="#fff"/><circle cx="20.654" cy="9.598" r="2.008" fill="#fff"/><path d="M18.941,29.613h-.603c-1.366,0-2.477-1.111-2.477-2.477s1.111-2.477,2.477-2.477h2.42v1.345h-2.42c-.624,0-1.132,.508-1.132,1.132s.508,1.132,1.132,1.132h.603v1.345Z" fill="#fff"/><path d="M24.196,26.356h-1.691v-1.614h1.691c.693,0,1.257-.564,1.257-1.257s-.564-1.257-1.257-1.257h-3.199v-1.614h3.199c1.583,0,2.871,1.289,2.871,2.871s-1.289,2.871-2.871,2.871Z" fill="#fff"/><path d="M18.635,22.781h-1.683c-1.633,0-2.961-1.328-2.961-2.96s1.328-2.961,2.961-2.961h3.819v1.793h-3.819c-.644,0-1.168,.524-1.168,1.168s.524,1.167,1.168,1.167h1.683v1.793Z" fill="#fff"/><path d="M26.71,18.654h-4.181v-1.793h4.181c.644,0,1.168-.524,1.168-1.167s-.524-1.168-1.168-1.168h-6.056v-1.793h6.056c1.633,0,2.961,1.328,2.961,2.961s-1.328,2.96-2.961,2.96Z" fill="#fff"/><path d="M20.052,14.768h-6.763c-1.632,0-2.96-1.328-2.96-2.961s1.328-2.961,2.96-2.961h2.271c.495,0,.896,.401,.896,.896s-.401,.896-.896,.896h-2.271c-.643,0-1.167,.524-1.167,1.168s.524,1.168,1.167,1.168h6.763c.495,0,.896,.401,.896,.896s-.401,.896-.896,.896Z" fill="#fff"/><path d="M24.313,28.192h-1.784v1.585h1.784v-.002h0c.437,0,.792-.354,.792-.792s-.354-.792-.792-.792Z" fill="#fff"/><path d="M15.557,8.846c.674,0,1.221,.567,1.221,1.267s-.546,1.267-1.221,1.267l-2.067-.75,2.067-1.785Z" fill="#fff"/></g></svg>

<svg id="Layer_1" data-name="Layer 1" xmlns="http://www.w3.org/2000/svg" viewBox="0 0 40 40"><defs><style>.cls-1{fill:#786de7;}.cls-2{fill:none;}.cls-3{fill:#fff;}</style></defs><rect class="cls-1" x="3.5" y="3.5" width="33" height="33" rx="8"/><rect class="cls-2" width="40" height="40"/><path class="cls-3" d="M19.857,10.066H21.45a0,0,0,0,1,0,0V31.613a.8.8,0,0,1-.8.8h0a.8.8,0,0,1-.8-.8V10.066A0,0,0,0,1,19.857,10.066Z"/><circle class="cls-3" cx="20.654" cy="9.598" r="2.008"/><path class="cls-3" d="M18.941,29.613h-.6a2.477,2.477,0,1,1,0-4.953h2.419v1.345H18.338a1.132,1.132,0,1,0,0,2.263h.6Z"/><path class="cls-3" d="M24.2,26.356H22.505V24.741H24.2a1.257,1.257,0,0,0,0-2.514H21V20.613h3.2a2.872,2.872,0,0,1,0,5.743Z"/><path class="cls-3" d="M18.635,22.781H16.953a2.96,2.96,0,1,1,0-5.92h3.818v1.793H16.953a1.167,1.167,0,1,0,0,2.334h1.682Z"/><path class="cls-3" d="M26.71,18.654H22.529V16.861H26.71a1.168,1.168,0,1,0,0-2.335H20.654V12.733H26.71a2.961,2.961,0,1,1,0,5.921Z"/><path class="cls-3" d="M20.052,14.768H13.289a2.961,2.961,0,0,1,0-5.922H15.56a.9.9,0,0,1,0,1.793H13.289a1.168,1.168,0,0,0,0,2.336h6.763a.9.9,0,0,1,0,1.793Z"/><path class="cls-3" d="M24.313,28.192H22.529v1.587h1.784v0h0a.792.792,0,1,0,0-1.583Z"/><path class="cls-3" d="M15.557,8.846a1.268,1.268,0,0,1,0,2.535l-2.067-.749Z"/></svg>
